assets/img/services-list-item-3.svg

<svg xmlns="http://www.w3.org/2000/svg" width="32" height="28"><path fill-rule="evenodd" fill="#666D89" d="M29.192 16.192l-11.053 10.93a3.048 3.048 0 01-4.278 0L2.808 16.192a9.403 9.403 0 010-13.4C6.439-.799 12.24-.874 16 2.505c3.761-3.379 9.562-3.304 13.192.287a9.403 9.403 0 010 13.4zm-1.427-11.99c-2.842-2.812-7.416-2.911-10.409-.222L16 5.199 14.644 3.98c-2.993-2.689-7.565-2.59-10.409.222a7.43 7.43 0 000 10.579l11.053 10.93a1.016 1.016 0 001.425 0l11.052-10.93a7.427 7.427 0 000-10.579zM9.252 6.025h-.001A3.248 3.248 0 006.002 9.27v.001a.5.5 0 01-1 0 4.247 4.247 0 014.246-4.244l.004-.001a.5.5 0 010 .999z"/></svg>

<svg 
 xmlns="http://www.w3.org/2000/svg"
 xmlns:xlink="http://www.w3.org/1999/xlink"
 width="32px" height="28px">
<path fill-rule="evenodd"  fill="rgb(102, 109, 137)"
 d="M29.192,16.192 C29.071,16.311 18.139,27.122 18.139,27.122 C16.957,28.291 15.044,28.291 13.861,27.122 C13.861,27.122 3.878,17.249 2.808,16.192 C-0.933,12.491 -0.933,6.492 2.808,2.792 C6.439,-0.799 12.240,-0.874 16.000,2.505 C19.761,-0.874 25.562,-0.799 29.192,2.792 C32.933,6.492 32.933,12.491 29.192,16.192 ZM27.765,4.202 C24.923,1.390 20.349,1.291 17.356,3.980 L16.000,5.199 L14.644,3.980 C11.651,1.291 7.079,1.390 4.235,4.202 C1.285,7.119 1.285,11.864 4.235,14.781 L15.288,25.711 C15.679,26.100 16.320,26.100 16.713,25.711 L27.765,14.781 C30.716,11.864 30.716,7.119 27.765,4.202 ZM9.252,6.025 L9.251,6.025 C7.457,6.025 6.002,7.479 6.002,9.270 L6.002,9.271 C6.002,9.547 5.778,9.771 5.502,9.771 C5.225,9.771 5.002,9.547 5.002,9.271 C5.002,6.928 6.903,5.029 9.248,5.027 C9.250,5.027 9.250,5.026 9.252,5.026 C9.528,5.026 9.752,5.250 9.752,5.526 C9.752,5.802 9.528,6.025 9.252,6.025 Z"/>
</svg>
